X: 7554
T: Cock O' The North
R: jig
M: 6/8
K: Dmajor
FG/A/B/c/|:d2 A B2 A|d2 A B2 A|F2 F FED|E3 FG/A/B/c/|
d2 A B2 A|d2 A B2 A|F2 F EFE|1 D3 FG/A/B/c/:|2 D3 A2 G||
|:F2 F FED|F2 A B2 A|F2 F FED|E3 EDE|
F2 F FED|F2 A B2 A|F2 F EFE|1 D3 A2 G:|2 D3 FG/A/B/c/||

